www/assets/icons/electric_rickshaw.svg

<svg width="24" height="24" viewBox="0 0 24 24" xmlns="http://www.w3.org/2000/svg" fill='currentColor'><path d="M20.995 10.18V8.72C20.995 8.25 20.835 7.8 20.535 7.44L16.595 2.72C16.215 2.26 15.655 2 15.055 2H2.995C1.895 2 0.994995 2.9 0.994995 4V12C0.994995 13.1 1.895 14 2.995 14H3.175C3.595 15.16 4.695 16 5.995 16C7.295 16 8.39499 15.16 8.81499 14H17.185C17.595 15.16 18.695 16 20.005 16C21.665 16 23.005 14.66 23.005 13C22.995 11.7 22.155 10.6 20.995 10.18ZM18.395 8H15.995V5.12L18.395 8ZM2.995 4H6.995V8H2.995V4ZM5.995 14C5.44499 14 4.995 13.55 4.995 13C4.995 12.45 5.44499 12 5.995 12C6.545 12 6.995 12.45 6.995 13C6.995 13.55 6.545 14 5.995 14ZM8.995 12V10H11.995V8H8.995V4H13.995V12H8.995ZM19.995 14C19.445 14 18.995 13.55 18.995 13C18.995 12.45 19.445 12 19.995 12C20.545 12 20.995 12.45 20.995 13C20.995 13.55 20.545 14 19.995 14Z"/><path d="M6.995 19H10.995V17L16.995 20H12.995V22L6.995 19Z"/></svg>

<svg xmlns="http://www.w3.org/2000/svg" width="24" height="24" viewBox="0 0 24 24" fill='currentColor'><path d="M20.995 10.18V8.72c0-.47-.16-.92-.46-1.28l-3.94-4.72c-.38-.46-.94-.72-1.54-.72H2.995c-1.1 0-2 .9-2 2v8c0 1.1.9 2 2 2h.18c.42 1.16 1.52 2 2.82 2s2.4-.84 2.82-2h8.37a2.996 2.996 0 0 0 5.82-1c-.01-1.3-.85-2.4-2.01-2.82M18.395 8h-2.4V5.12zm-15.4-4h4v4h-4zm3 10c-.55 0-1-.45-1-1s.45-1 1-1 1 .45 1 1-.45 1-1 1m3-2v-2h3V8h-3V4h5v8zm11 2c-.55 0-1-.45-1-1s.45-1 1-1 1 .45 1 1-.45 1-1 1m-13 5h4v-2l6 3h-4v2z"/></svg>
